svgs/duotone/typewriter.svg

<svg xmlns="http://www.w3.org/2000/svg" viewBox="0 0 512 512"><!--! Font Awesome Pro 6.0.0-alpha3 by @fontawesome - https://fontawesome.com License - https://fontawesome.com/license (Commercial License) --><defs><style>.fa-secondary{opacity:.4}</style></defs><path class="fa-primary" d="M352 0v96h96L352 0zM480 192h-114.8c-8.5 0-16.62 3.375-22.62 9.375l-13.25 13.25C323.4 220.6 315.3 224 306.8 224h-101.5c-8.5 0-16.62-3.375-22.62-9.375L169.4 201.4C163.4 195.4 155.3 192 146.8 192H32C14.4 192 0 206.4 0 224v32c0 17.62 14.38 32 32 32v176C32 490.5 53.49 512 80 512h352c26.51 0 48-21.49 48-48V288c17.62 0 32-14.38 32-32V224C512 206.4 497.6 192 480 192zM336 296C336 291.6 339.6 288 344 288h16c4.375 0 8 3.625 8 8v16c0 4.375-3.625 8-8 8h-16c-4.375 0-8-3.625-8-8V296zM312 352h16c4.375 0 8 3.625 8 8v16c0 4.375-3.625 8-8 8h-16c-4.375 0-8-3.625-8-8v-16C304 355.6 307.6 352 312 352zM272 296C272 291.6 275.6 288 280 288h16c4.375 0 8 3.625 8 8v16c0 4.375-3.625 8-8 8h-16c-4.375 0-8-3.625-8-8V296zM248 352h16c4.375 0 8 3.625 8 8v16c0 4.375-3.625 8-8 8h-16c-4.375 0-8-3.625-8-8v-16C240 355.6 243.6 352 248 352zM208 296C208 291.6 211.6 288 216 288h16C236.4 288 240 291.6 240 296v16C240 316.4 236.4 320 232 320h-16C211.6 320 208 316.4 208 312V296zM184 352h16c4.375 0 8 3.625 8 8v16C208 380.4 204.4 384 200 384h-16c-4.375 0-8-3.625-8-8v-16C176 355.6 179.6 352 184 352zM144 296C144 291.6 147.6 288 152 288h16C172.4 288 176 291.6 176 296v16C176 316.4 172.4 320 168 320h-16C147.6 320 144 316.4 144 312V296zM104 320h-16C83.63 320 80 316.4 80 312v-16C80 291.6 83.63 288 88 288h16C108.4 288 112 291.6 112 296v16C112 316.4 108.4 320 104 320zM136 384h-16c-4.375 0-8-3.625-8-8v-16C112 355.6 115.6 352 120 352h16c4.375 0 8 3.625 8 8v16C144 380.4 140.4 384 136 384zM368 440c0 4.375-3.625 8-8 8h-208c-4.375 0-8-3.625-8-8v-16C144 419.6 147.6 416 152 416h208c4.375 0 8 3.625 8 8V440zM400 376c0 4.375-3.625 8-8 8h-16c-4.375 0-8-3.625-8-8v-16c0-4.375 3.625-8 8-8h16c4.375 0 8 3.625 8 8V376zM432 312c0 4.375-3.625 8-8 8h-16c-4.375 0-8-3.625-8-8v-16C400 291.6 403.6 288 408 288h16c4.375 0 8 3.625 8 8V312z"/><path class="fa-secondary" d="M64 192V48C64 21.49 85.49 0 112 0H352v96h96v96h-82.75c-8.5 0-16.62 3.375-22.62 9.375l-13.25 13.25C323.4 220.6 315.3 224 306.8 224h-101.5c-8.5 0-16.62-3.375-22.62-9.375L169.4 201.4C163.4 195.4 155.3 192 146.8 192H64z"/></svg>

<svg xmlns="http://www.w3.org/2000/svg" viewBox="0 0 512 512"><!-- Font Awesome Pro 6.0.0-alpha2 by @fontawesome - https://fontawesome.com License - https://fontawesome.com/license (Commercial License) --><defs><style>.fa-secondary{opacity:.4}</style></defs><path d="M64 192V48C64 21.49 85.49 0 112 0H352V96H448V192H365.25C356.75 192 348.625 195.375 342.625 201.375L329.375 214.625C323.375 220.625 315.25 224 306.75 224H205.25C196.75 224 188.625 220.625 182.625 214.625L169.375 201.375C163.375 195.375 155.25 192 146.75 192H64Z" class="fa-secondary"/><path d="M352 0V96H448L352 0ZM480 192H365.25C356.75 192 348.625 195.375 342.625 201.375L329.375 214.625C323.375 220.625 315.25 224 306.75 224H205.25C196.75 224 188.625 220.625 182.625 214.625L169.375 201.375C163.375 195.375 155.25 192 146.75 192H32C14.4 192 0 206.4 0 224V256C0 273.625 14.375 288 32 288V464C32 490.51 53.49 512 80 512H432C458.51 512 480 490.51 480 464V288C497.625 288 512 273.625 512 256V224C512 206.4 497.6 192 480 192ZM336 296C336 291.625 339.625 288 344 288H360C364.375 288 368 291.625 368 296V312C368 316.375 364.375 320 360 320H344C339.625 320 336 316.375 336 312V296ZM312 352H328C332.375 352 336 355.625 336 360V376C336 380.375 332.375 384 328 384H312C307.625 384 304 380.375 304 376V360C304 355.625 307.625 352 312 352ZM272 296C272 291.625 275.625 288 280 288H296C300.375 288 304 291.625 304 296V312C304 316.375 300.375 320 296 320H280C275.625 320 272 316.375 272 312V296ZM248 352H264C268.375 352 272 355.625 272 360V376C272 380.375 268.375 384 264 384H248C243.625 384 240 380.375 240 376V360C240 355.625 243.625 352 248 352ZM208 296C208 291.625 211.625 288 216 288H232C236.375 288 240 291.625 240 296V312C240 316.375 236.375 320 232 320H216C211.625 320 208 316.375 208 312V296ZM184 352H200C204.375 352 208 355.625 208 360V376C208 380.375 204.375 384 200 384H184C179.625 384 176 380.375 176 376V360C176 355.625 179.625 352 184 352ZM144 296C144 291.625 147.625 288 152 288H168C172.375 288 176 291.625 176 296V312C176 316.375 172.375 320 168 320H152C147.625 320 144 316.375 144 312V296ZM104 320H88C83.625 320 80 316.375 80 312V296C80 291.625 83.625 288 88 288H104C108.375 288 112 291.625 112 296V312C112 316.375 108.375 320 104 320ZM136 384H120C115.625 384 112 380.375 112 376V360C112 355.625 115.625 352 120 352H136C140.375 352 144 355.625 144 360V376C144 380.375 140.375 384 136 384ZM368 440C368 444.375 364.375 448 360 448H152C147.625 448 144 444.375 144 440V424C144 419.625 147.625 416 152 416H360C364.375 416 368 419.625 368 424V440ZM400 376C400 380.375 396.375 384 392 384H376C371.625 384 368 380.375 368 376V360C368 355.625 371.625 352 376 352H392C396.375 352 400 355.625 400 360V376ZM432 312C432 316.375 428.375 320 424 320H408C403.625 320 400 316.375 400 312V296C400 291.625 403.625 288 408 288H424C428.375 288 432 291.625 432 296V312Z" class="fa-primary"/></svg>
